X:1
T:Lad O'Beirne's
S:From Sharon Shannon's set Mouth Of The Tobique
Z:Transcribed by Risto Apajalahti
R:reel
M:4/4
L:1/8
K:F
|:d2 cA dA cA|Gc AF F/G/F FD|CF FF CF Ac|dc de fa gf|
d2 cA dA cA |Gc AF F/G/F FD|CF F/F/F DF Bd|1 cb ag f2 fe :|2 cb ag f2 fg|]
a2 gf af gf|dg fd cB AB|B/c/c Ac cd fa|gf ga g2 fg|
af gf af gf|dg fd cB AB|B/c/c Bc cd fa|gf ga f3g|
af gf af gf|dg fd cB AB|c2 cA cd fa|g2 ga ba gf|
a3g f3c|dg fd cA FD|CF F/F/F DF Bd|cb ag f3e|]
